packages/katcn/src/icons/svg/order-solid.svg

<svg width="24" height="24" viewBox="0 0 24 24" fill="none" xmlns="http://www.w3.org/2000/svg">
<path d="M9.79999 3V4V10L11.5 8.7C11.9 8.4 12.3 8.4 12.7 8.7L14.4 10V4V3V2.1C14.4 2.1 14.4 2.1 14.4 2H9.79999C9.79999 2 9.79999 2 9.79999 2.1V3Z" fill="black"/>
<path d="M17.7426 2H16.2574C16.2574 2 16.2574 2 16.2574 2.1V3V4V12C16.2574 12.4 16.0594 12.7 15.7624 12.9C15.5644 13 15.4653 13 15.2673 13C15.0693 13 14.8713 12.9 14.6733 12.8L12 10.8L9.32673 12.8C9.0297 13 8.63366 13.1 8.33663 12.9C7.94059 12.7 7.74257 12.4 7.74257 12V4V3V2.1C7.74257 2.1 7.74257 2.1 7.74257 2H6.25743C3.88119 2 2 3.9 2 6.3V17.7C2 20.1 3.88119 22 6.25743 22H17.7426C20.1188 22 22 20.1 22 17.7V6.3C22 3.9 20.1188 2 17.7426 2Z" fill="black"/>
<path d="M11.3 18.8H6.29999C5.69999 18.8 5.29999 18.4 5.29999 17.8C5.29999 17.2 5.69999 16.8 6.29999 16.8H11.3C11.9 16.8 12.3 17.2 12.3 17.8C12.3 18.4 11.8 18.8 11.3 18.8Z" fill="white"/>
</svg>

<svg xmlns="http://www.w3.org/2000/svg" fill="none" viewBox="0 0 24 24"><path fill="#000" d="M9.8 3v7l1.7-1.3q.6-.45 1.2 0l1.7 1.3V2H9.8z"/><path fill="#000" d="M17.743 2h-1.486v10c0 .4-.198.7-.495.9-.198.1-.297.1-.495.1s-.396-.1-.594-.2L12 10.8l-2.673 2c-.297.2-.693.3-.99.1q-.594-.3-.594-.9V2H6.257C3.881 2 2 3.9 2 6.3v11.4C2 20.1 3.881 22 6.257 22h11.486C20.119 22 22 20.1 22 17.7V6.3C22 3.9 20.119 2 17.743 2"/><path fill="#fff" d="M11.3 18.8h-5c-.6 0-1-.4-1-1s.4-1 1-1h5c.6 0 1 .4 1 1s-.5 1-1 1"/></svg>
